X: 23170
T: Le Petit Oiseau
R: barndance
M: 4/4
K: Aminor
AB cB AG EG|AB cB AB GB|
AB cB AG EG|DE GB A2 AG:|
D2 dc BA GB|cB AG AB GE|
D2 dc BA GB|1 cB AG AB GE:|2 cB AG A2 AG||

